src/icons/hds/ui/locate.svg

<svg xmlns="http://www.w3.org/2000/svg" width="24" height="24" viewBox="0 0 24 24">
  <g fill="none" fill-rule="evenodd">
    <rect width="24" height="24"/>
    <path fill="currentColor" d="M13,2 L13.0009551,4.06201291 C16.6192382,4.51364811 19.486924,7.38162677 19.9381123,11.0000487 L22,11 L22,13 L19.9379871,13.0009551 C19.4863937,16.6189036 16.6189036,19.4863937 13.0009551,19.9379871 L13,22 L11,22 L11.0000487,19.9381123 C7.38162677,19.486924 4.51364811,16.6192382 4.06201291,13.0009551 L2,13 L2,11 L4.06188768,11.0000487 C4.5131177,7.38129217 7.38129217,4.5131177 11.0000487,4.06188768 L11,2 L13,2 Z M12,6 C8.6862915,6 6,8.6862915 6,12 C6,15.3137085 8.6862915,18 12,18 C15.3137085,18 18,15.3137085 18,12 C18,8.6862915 15.3137085,6 12,6 Z M12,8.5 C13.9329966,8.5 15.5,10.0670034 15.5,12 C15.5,13.9329966 13.9329966,15.5 12,15.5 C10.0670034,15.5 8.5,13.9329966 8.5,12 C8.5,10.0670034 10.0670034,8.5 12,8.5 Z M12,10.5 C11.1715729,10.5 10.5,11.1715729 10.5,12 C10.5,12.8284271 11.1715729,13.5 12,13.5 C12.8284271,13.5 13.5,12.8284271 13.5,12 C13.5,11.1715729 12.8284271,10.5 12,10.5 Z"/>
  </g>
</svg>

<svg viewBox="0 0 24 24" role="img" xmlns="http://www.w3.org/2000/svg"><g fill="none" fill-rule="evenodd"><path d="M0 0h24v24H0z"/><path d="M13 2l.001 2.062A8.004 8.004 0 0119.938 11H22v2l-2.062.001a8.004 8.004 0 01-6.937 6.937L13 22h-2v-2.062a8.004 8.004 0 01-6.938-6.937L2 13v-2h2.062A8.004 8.004 0 0111 4.062V2h2zm-1 4a6 6 0 100 12 6 6 0 000-12zm0 2.5a3.5 3.5 0 110 7 3.5 3.5 0 010-7zm0 2a1.5 1.5 0 100 3 1.5 1.5 0 000-3z" fill="currentColor"/></g></svg>
